X: 34519
T: Riil
R: reel
M: 4/4
K: Dmajor
A|:d3 A FDFA|G2 E2 E2 d2|cAce gece|defd cABc|
d3 A FDFA|G2 E2 E2 d2|cAce gece|1 d2 f2 d2 A2:|2 d2 f2 d2 e2||
|:Aceg fdfa|Aceg fdfb|afge fdge|fdge dcBA|
d3 A FDFA|G2 E2 E3 d|cAce gece|1 d2 f2 d2 A2:|2 d2 f2 d2 z2||

